!!!CDT:
!!!PTL: L'Armida del Tasso posta in musica a cinque voci, col suo basso per suonare
!!!PPP: Venice
!!!PPR: Alessandro Vincenti
!!!PDT: 1629
!!!PUB-format:
!!!RISM: E 741
!!!AGN: Madrigal
!!!SCT: Tsg20127a
!!!SCA: Tsg20127a
!!!original-voices: 5+bc
!!!extant-voices: 5+bc
!!!complete: Y
!!!final: (D)G
!!!COM: Eredi, Francesco
!!!OTL: Qui tacque: e stabilito il suo pensiero
**kern	**fb	**kern	**text	**kern	**text	**kern	**text	**kern	**text	**kern	**text
*part6	*part6	*part5	*part5	*part4	*part4	*part3	*part3	*part2	*part2	*part1	*part1
*staff6	*staff6	*staff5	*staff5	*staff4	*staff4	*staff3	*staff3	*staff2	*staff2	*staff1	*staff1
*I"Basso continuo	*	*I"Basso	*	*I"Tenore	*	*I"Quinto	*	*I"Alto	*	*I"Canto	*
*I'Bc	*	*I'B	*	*I'T	*	*I'V	*	*I'A	*	*I'C	*
*oclefF4	*	*oclefF4	*	*oclefC4	*	*oclefC4	*	*oclefC3	*	*oclefC1	*
*clefF4	*	*clefF4	*	*clefGv2	*	*clefGv2	*	*clefGv2	*	*clefG2	*
*k[]	*	*k[]	*	*k[]	*	*k[]	*	*k[]	*	*k[]	*
*C:	*	*C:	*	*C:	*	*C:	*	*C:	*	*C:	*
*omet(C)	*	*omet(C)	*	*omet(C)	*	*omet(C)	*	*omet(C)	*	*omet(C)	*
*M4/4	*	*M4/4	*	*M4/4	*	*M4/4	*	*M4/4	*	*M4/4	*
=1	=1	=1	=1	=1	=1	=1	=1	=1	=1	=1	=1
!!LO:TX:a:t=Quinta parte
2GG	.	4r	.	4r	.	4r	.	4r	.	4r	.
.	.	4GG	Qui	4G	Qui	4B	Qui	4d	Qui	4g	Qui
[2C	.	[2C	ta-	[2G	ta-	[2c	ta-	[2e	ta-	[2g	ta-
=2	=2	=2	=2	=2	=2	=2	=2	=2	=2	=2	=2
4C]	.	4C]	.	4G]	.	4c]	.	4e]	.	4g]	.
4C	.	4C	-que:	4E	-que:	4c	-que:	4e	-que:	4g	-que:
2F	.	8r	.	8r	.	8r	.	8r	.	8r	.
.	.	8F	e	8A	e	8c	e	8f	e	8a	e
.	.	8F	sta-	8A	sta-	8c	sta-	8f	sta-	8a	sta-
.	.	8F	-bi-	8A	-bi-	8c	-bi-	8f	-bi-	8a	-bi-
=3	=3	=3	=3	=3	=3	=3	=3	=3	=3	=3	=3
4F	.	8F	-li-	8A	-li-	8c	-li-	8f	-li-	8a	-li-
.	.	8F	-to il	8A	-to il	8c	-to il	8f	-to il	8a	-to il
2A	.	2A	suo	2A	suo	2c	suo	2e	suo	2cc	suo
4AA	.	4AA	pen-	4A	pen-	4c	pen-	4e	pen-	4a	pen-
=4	=4	=4	=4	=4	=4	=4	=4	=4	=4	=4	=4
2E	#	2E	-sie-	2G#X	-sie-	2B	-sie-	2e	-sie-	2b	-sie-
2E	.	2E	-ro	2G#i	-ro	2B	-ro	2e	-ro	2b	-ro
=5	=5	=5	=5	=5	=5	=5	=5	=5	=5	=5	=5
2F	.	1r	.	1r	.	2r	.	4c	Stra-	1r	.
.	.	.	.	.	.	.	.	4d	-le	.	.
4E	.	.	.	.	.	4G	Stra-	4e	sce-	.	.
4D	.	.	.	.	.	4A	-le	4f	-glie-	.	.
=6	=6	=6	=6	=6	=6	=6	=6	=6	=6	=6	=6
4G	.	1r	.	1r	.	4B	sce-	4d	-va	1r	.
4C	.	.	.	.	.	4c	-glie-	8r	.	.	.
.	.	.	.	.	.	.	.	8e	il	.	.
2F	.	.	.	.	.	4A	-va	8f	più	.	.
.	.	.	.	.	.	.	.	8g	pun-	.	.
.	.	.	.	.	.	8r	.	4a	-gen-	.	.
.	.	.	.	.	.	8A	il	.	.	.	.
=7	=7	=7	=7	=7	=7	=7	=7	=7	=7	=7	=7
2G	.	1r	.	1r	.	8B	più	2g	-te e	1r	.
.	.	.	.	.	.	8c	pun-	.	.	.	.
.	.	.	.	.	.	8d	-gen-	.	.	.	.
.	.	.	.	.	.	8B	-te e	.	.	.	.
2D	.	.	.	.	.	[2d	for-	4.f	for-	.	.
.	.	.	.	.	.	.	.	8g	.	.	.
=8	=8	=8	=8	=8	=8	=8	=8	=8	=8	=8	=8
2A	#	2r	.	1r	.	4d]	.	2e	.	2r	.
.	.	.	.	.	.	4c#X	.	.	.	.	.
2D	.	4r	.	.	.	2d	-te,	2d	-te,	4a	Stra-
.	.	4D	Stra-	.	.	.	.	.	.	4b	-le
=9	=9	=9	=9	=9	=9	=9	=9	=9	=9	=9	=9
4E	6	4E	-le	4G	Stra-	2r	.	8r	.	4cc	sce-
.	.	.	.	.	.	.	.	8g	il	.	.
4F	6	4F	sce-	4A	-le	.	.	8f	più	4dd	-glie-
.	.	.	.	.	.	.	.	8e	pun-	.	.
4G	.	4G	-glie-	4B	sce-	8r	.	4d	-gen-	4b	-va
.	.	.	.	.	.	8d	il	.	.	.	.
4E	.	4E	-va	4c	-glie-	8c	più	4e	-te	8r	.
.	.	.	.	.	.	8B	pun-	.	.	8e	il
=10	=10	=10	=10	=10	=10	=10	=10	=10	=10	=10	=10
8DL	.	8r	.	4d	-va	4A	-gen-	4r	.	8f	più
8EJ	.	8E	il	.	.	.	.	.	.	8g	pun-
8FL	.	8F	più	8r	.	4A	-te,	4f	e	2a	-gen-
8GJ	.	8G	pun-	8B	il	.	.	.	.	.	.
2A	.	4A	-gen-	8c	più	8r	.	2e	for-	.	.
.	.	.	.	8d	pun-	8B	<il	.	.	.	.
.	.	4A	-te,	[4e	-gen-	8c	più	.	.	4a	-te e
.	.	.	.	.	.	8d	pun-	.	.	.	.
=11	=11	=11	=11	=11	=11	=11	=11	=11	=11	=11	=11
4C	.	4C	Stra-	4e]	.	4e	-gen-	2A	-te,	4cc	for-
4D	.	4D	-le	4d	-te e	4A	-te>,	.	.	4f	-te,
4E	6	4E	sce-	4c	for-	4G	Stra-	2r	.	4r	.
4F	.	4F	-glie-	4A	-te,	4A	-le	.	.	4c	Stra-
=12	=12	=12	=12	=12	=12	=12	=12	=12	=12	=12	=12
8DL	.	8D	-va	4r	.	4B	sce-	4r	.	4d	-le
8GJ	.	8G	il	.	.	.	.	.	.	.	.
8FL	.	8F	più	8r	.	4c	-glie-	4c	Stra-	4e	sce-
8EJ	.	8E	pun-	8G	il	.	.	.	.	.	.
4D	.	4D	-gen-	8A	più	4F	-va	4d	-le	4f	-glie-
.	.	.	.	8B	pun-	.	.	.	.	.	.
4C	.	4C	-te e	8c	-gen-	8r	.	4e	sce-	8e	-va
.	.	.	.	8e	-te e	8G	il	.	.	8cc	il
=13	=13	=13	=13	=13	=13	=13	=13	=13	=13	=13	=13
2D	.	2D	for-	4d	for-	8F	più	4f	-glie-	8a	più
.	.	.	.	.	.	8E	pun-	.	.	8g	pun-
.	.	.	.	8A	-te,	8F	-gen-	4d	-va	8a	-gen-
.	.	.	.	8A	<il	8D	-te e	.	.	8f	-te e
2C	.	2C	-te	8c	più	2E	for-	4r	.	4g	for-
.	.	.	.	8d	pun-	.	.	.	.	.	.
.	.	.	.	8e	-gen-	.	.	4g	il	4e	-te
.	.	.	.	8c	-te e	.	.	.	.	.	.
=14	=14	=14	=14	=14	=14	=14	=14	=14	=14	=14	=14
2D	.	1r	.	4d	for-	4D	-te,	8f	più	1r	.
.	.	.	.	.	.	.	.	8e	pun-	.	.
.	.	.	.	4A	-te>	4d	<il	8f	-gen-	.	.
.	.	.	.	.	.	.	.	8d	-te e	.	.
2A	.	.	.	2r	.	8c	più	4e	for-	.	.
.	.	.	.	.	.	8B	pun-	.	.	.	.
.	.	.	.	.	.	8c	-gen-	4e	-te,	.	.
.	.	.	.	.	.	8A	-te e	.	.	.	.
=15	=15	=15	=15	=15	=15	=15	=15	=15	=15	=15	=15
4E	.	1r	.	1r	.	8BL	for-	8r	.	1r	.
.	.	.	.	.	.	8GJ	.	8g	<il	.	.
4F	.	.	.	.	.	2c	.	8f	più	.	.
.	.	.	.	.	.	.	.	8e	pun-	.	.
2G	.	.	.	.	.	.	.	8d	-gen-	.	.
.	.	.	.	.	.	.	.	8c	-te e	.	.
.	.	.	.	.	.	4B	.	4d	for-	.	.
=16	=16	=16	=16	=16	=16	=16	=16	=16	=16	=16	=16
1C	.	1r	.	2r	.	1c	-te>	1e	-te>	1r	.
.	.	.	.	4r	.	.	.	.	.	.	.
.	.	.	.	8G	Quan-	.	.	.	.	.	.
.	.	.	.	8G	-do	.	.	.	.	.	.
=17	=17	=17	=17	=17	=17	=17	=17	=17	=17	=17	=17
4C	.	4r	.	4c	giun-	4r	.	4r	.	4r	.
4C	.	8C	Quan-	4c	-se	8G	Quan-	8e	Quan-	8g	Quan-
.	.	8C	-do	.	.	8c	-do	8e	-do	8g	-do
2G	.	4G	giun-	2r	.	8B	giun-	4d	giun-	4g	giun-
.	.	.	.	.	.	8B	-se	.	.	.	.
.	.	4G	-se	.	.	8G	e	4d	-se	4g	-se
.	.	.	.	.	.	8G	mi-	.	.	.	.
=18	=18	=18	=18	=18	=18	=18	=18	=18	=18	=18	=18
2A	.	1r	.	1r	.	2A	-rol-	4r	.	1r	.
.	.	.	.	.	.	.	.	8c	e	.	.
.	.	.	.	.	.	.	.	8c	mi-	.	.
2B	.	.	.	.	.	2B	-la il	2d	-rol-	.	.
=19	=19	=19	=19	=19	=19	=19	=19	=19	=19	=19	=19
4c	.	1r	.	4r	.	2c	Ca-	2e	-la il	4r	.
4C	.	.	.	8C	e	.	.	.	.	2ee	Tan-
.	.	.	.	8C	mi-	.	.	.	.	.	.
2D	.	.	.	2D	-rol-	2A	-va-	4f	Ca-	.	.
.	.	.	.	.	.	.	.	4f	-va-	8.dd	-to
.	.	.	.	.	.	.	.	.	.	16cc	vi-
=20	=20	=20	=20	=20	=20	=20	=20	=20	=20	=20	=20
2E	.	1r	.	2E	-la il	2G	-lie-	2g	-lie-	8.cc	-ci-
.	.	.	.	.	.	.	.	.	.	16b	-na a
.	.	.	.	.	.	.	.	.	.	8.b	la
.	.	.	.	.	.	.	.	.	.	16a	sua e-
[2F	.	.	.	[2F	Ca-	2c	-ro	2f	-ro	4.a	-stre-
.	.	.	.	.	.	.	.	.	.	8b	-ma
=21	=21	=21	=21	=21	=21	=21	=21	=21	=21	=21	=21
4F]	.	1r	.	4F]	.	4r	.	4r	.	4cc	sor-
4F	.	.	.	4F	-va-	2f	Tan-	2a	Tan-	4a	-te,
2G	.	.	.	2G	-lie-	.	.	.	.	2r	.
.	.	.	.	.	.	8.e	-to	8.g	-to	.	.
.	.	.	.	.	.	16d	vi-	16f	vi-	.	.
=22	=22	=22	=22	=22	=22	=22	=22	=22	=22	=22	=22
4A	.	4r	.	4A	-ro	8.d	-ci-	8.f	-ci-	1r	.
.	.	.	.	.	.	16c	-na a	16e	-na a	.	.
4C	.	8C	e	4r	.	8.c	la	8.e	la	.	.
.	.	8C	mi-	.	.	.	.	.	.	.	.
.	.	.	.	.	.	16B	sua e-	16d	sua e-	.	.
2D	.	2D	-rol-	2r	.	8.B	-stre-	4d	-stre-	.	.
.	.	.	.	.	.	16A	-ma	.	.	.	.
.	.	.	.	.	.	4A	sor-	4c	-ma	.	.
=23	=23	=23	=23	=23	=23	=23	=23	=23	=23	=23	=23
2E	.	2E	-la il	4r	.	4G	-te,	2B	sor-	4r	.
.	.	.	.	2e	Tan-	8G	e	.	.	2g	<Tan-
.	.	.	.	.	.	8G	mi-	.	.	.	.
2F	.	4F	Ca-	.	.	2A	-rol-	4A	-te,	.	.
.	.	4F	-va-	8.d	-to	.	.	[4a	<Tan-	8.f	-to
.	.	.	.	16c	vi-	.	.	.	.	16e	vi-
=24	=24	=24	=24	=24	=24	=24	=24	=24	=24	=24	=24
2G	.	2G	-lie-	8.c	-ci-	2B	-la il	4a]	.	8.e	-ci-
.	.	.	.	16B	-na a	.	.	.	.	16d	-na a
.	.	.	.	8.B	la	.	.	8.g	-to	8.d	la
.	.	.	.	16A	sua e-	.	.	16f	vi-	16c	sua
4A	.	2A	-ro	4.A	-stre-	4c	Ca-	8.f	-ci-	8c	e-
.	.	.	.	.	.	.	.	.	.	8A	-stre-
.	.	.	.	.	.	.	.	16e	-na a	.	.
4F	6	.	.	.	.	4A	-va-	8.e	la	4a	-ma
.	.	.	.	8F	-ma	.	.	.	.	.	.
.	.	.	.	.	.	.	.	16d	sua e-	.	.
=25	=25	=25	=25	=25	=25	=25	=25	=25	=25	=25	=25
4E	.	4r	.	4E	sor-	4B	-lie-	8.e	-stre-	4g	sor-
.	.	.	.	.	.	.	.	16d	-ma	.	.
2AA	.	2A	Tan-	4A	-te,	4c	-ro	4c	sor-	4e	-te>
.	.	.	.	2r	.	4c	Tan-	2e	-te,>	2r	.
8BBL	.	8.G	-to	.	.	8.B	-to	.	.	.	.
8CJ	.	.	.	.	.	.	.	.	.	.	.
.	.	16F	vi-	.	.	16A	vi-	.	.	.	.
=26	=26	=26	=26	=26	=26	=26	=26	=26	=26	=26	=26
4D	.	8.F	-ci-	1r	.	8.A	-ci-	1r	.	4r	.
.	.	16E	-na a	.	.	16G	-na a	.	.	.	.
4E	.	8.E	la	.	.	8.G	la	.	.	8g	e
.	.	.	.	.	.	.	.	.	.	8g	mi-
.	.	16D	sua e-	.	.	16F	sua e-	.	.	.	.
4D	.	4D	-stre-	.	.	4F	-stre-	.	.	2a	-rol-
4C	.	4C	-ma	.	.	4E	-ma	.	.	.	.
=27	=27	=27	=27	=27	=27	=27	=27	=27	=27	=27	=27
2BB	.	2BB	sor-	4r	.	2D	sor-	4r	.	2b	-la il
.	.	.	.	2d	<Tan-	.	.	2f	<Tan-	.	.
2AA	.	2AA	-te	.	.	2A	-te,	.	.	2cc	Ca-
.	.	.	.	8.c	-to	.	.	8.e	-to	.	.
.	.	.	.	16B	vi-	.	.	16d	vi-	.	.
=28	=28	=28	=28	=28	=28	=28	=28	=28	=28	=28	=28
4BB	.	1r	.	8.B	-ci-	1r	.	8.d	-ci-	4dd	-va-
.	.	.	.	16A	-na a	.	.	16c	-na a	.	.
4C	6	.	.	8.A	la	.	.	8.c	la	2ee	-lie-
.	.	.	.	16G	sua e-	.	.	16B	sua e-	.	.
2E	.	.	.	4G	-stre-	.	.	4.B	-stre-	.	.
.	.	.	.	4E	-ma	.	.	.	.	4ee	-ro
.	.	.	.	.	.	.	.	8c	-ma	.	.
=29	=29	=29	=29	=29	=29	=29	=29	=29	=29	=29	=29
2D	.	1r	.	2D	sor-	4r	.	2d	sor-	4r	.
.	.	.	.	.	.	2f	<Tan-	.	.	2a	Tan-
2C	.	.	.	2C	-te>	.	.	2e	-te>	.	.
.	.	.	.	.	.	8.e	-to	.	.	8.g	-to
.	.	.	.	.	.	16d	vi-	.	.	16f	vi-
=30	=30	=30	=30	=30	=30	=30	=30	=30	=30	=30	=30
4D	.	1r	.	1r	.	8.d	-ci-	1r	.	8.f	-ci-
.	.	.	.	.	.	16c	-na a	.	.	16e	-na a
4E	6	.	.	.	.	8.c	la	.	.	8.e	la
.	.	.	.	.	.	16B	sua e-	.	.	16d	sua e-
4G	.	.	.	.	.	4B	-stre-	.	.	4d	-stre-
4A	.	.	.	.	.	4A	-ma	.	.	4c	-ma
=31	=31	=31	=31	=31	=31	=31	=31	=31	=31	=31	=31
2E	#	1r	.	1r	.	4A	sor-	1r	.	2B	sor-
.	.	.	.	.	.	4G#X	.	.	.	.	.
2AA	.	.	.	.	.	2A	-te>	.	.	2A	-te
=32	=32	=32	=32	=32	=32	=32	=32	=32	=32	=32	=32
4r	.	4r	.	4r	.	4r	.	4r	.	4r	.
2F	.	2F	Già	2A	Già	2c	Già	2f	Già	2a	Già
4C#X	.	4C#X	com-	4A	com-	4e	com-	4e	com-	4a	com-
=33	=33	=33	=33	=33	=33	=33	=33	=33	=33	=33	=33
2D	.	4D	-po-	4F#X	-po-	4A	-po-	4d	-po-	4a	-po-
.	.	8D	-sta-	8F#X	-sta-	8A	-sta-	8d	-sta-	8a	-sta-
.	.	8D	-si in	8F#i	-si in	8F#X	-si in	8d	-si in	8a	-si in
2BB	#	2BB	at-	2B	at-	2F#X	at-	2d#X	at-	2b	at-
=34	=34	=34	=34	=34	=34	=34	=34	=34	=34	=34	=34
4BB	.	4BB	-to a-	4F#X	-to a-	4B	-to a-	4d#X	-to a-	4b	-to a-
2E	#	2E	-tro-	2G#X	-tro-	2B	-tro-	2e	-tro-	2b	-tro-
4D	7 #	4D	-ce e	4A	-ce e	4F#X	-ce e	4A	-ce e	4cc	-ce e
=35	=35	=35	=35	=35	=35	=35	=35	=35	=35	=35	=35
2E	#	2E	fe-	4G#X	fe-	4B	fe-	2e	fe-	4b	fe-
.	.	.	.	2A	.	4c	.	.	.	4a	.
2E	.	2E	-ro	.	.	2B	-ro	2e	-ro	2b	-ro
.	.	.	.	4G#X	-ro	.	.	.	.	.	.
=36	=36	=36	=36	=36	=36	=36	=36	=36	=36	=36	=36
2AA	.	4r	.	4e	Già	4r	.	2r	.	4r	.
.	.	4A	Già	8c	tin-	4c	Già	.	.	4a	Già
.	.	.	.	8c	-ta in	.	.	.	.	.	.
2F	.	8F	tin-	[2A	vi-	8c	tin-	4a	Già	8cc	tin-
.	.	8F	-ta in	.	.	8c	-ta in	.	.	8cc	-ta in
.	.	[4F	vi-	.	.	4c	vi-	8f	tin-	4cc	vi-
.	.	.	.	.	.	.	.	8f	-ta in	.	.
=37	=37	=37	=37	=37	=37	=37	=37	=37	=37	=37	=37
2F	.	4F]	.	4A]	.	2c	-so	4f	vi-	2a	-so
.	.	4F	-so	4A	-so	.	.	4f	-so	.	.
2D	.	4r	.	8D	di	4r	.	4r	.	4r	.
.	.	.	.	8D	pal-	.	.	.	.	.	.
.	.	8D	di	[4F	-lor	8d	di	8f	di	8a	di
.	.	8D	pal-	.	.	8A	pal-	8d	pal-	8f	pal-
=38	=38	=38	=38	=38	=38	=38	=38	=38	=38	=38	=38
2BB-X	.	4BB-X	-lor	4F]	.	4B-X	-lor	4d	-lor	2f	-lor
.	.	4BB-i	di	4F	di	4B-i	di	4d	di	.	.
2BB-i	6	2BB-i	mor-	2G	mor-	4B-i	mor-	4.d	mor-	4r	.
.	.	.	.	.	.	4G	.	.	.	4d	di
.	.	.	.	.	.	.	.	8e	.	.	.
=39	=39	=39	=39	=39	=39	=39	=39	=39	=39	=39	=39
1AA	.	1AA	-te	1E	-te	1A	-te	2f	.	2a	mor-
.	.	.	.	.	.	.	.	2e	-te	2a	-te
=40	=40	=40	=40	=40	=40	=40	=40	=40	=40	=40	=40
2D	.	4r	.	1r	.	4A	Da	2r	.	1r	.
.	.	4D	Da	.	.	4d	ter-	.	.	.	.
4G	.	4G	ter-	.	.	4B	-go ei	4d	Da	.	.
4E	6	4E	-go ei	.	.	8c	se	4g	ter-	.	.
.	.	.	.	.	.	8B	le a-	.	.	.	.
=41	=41	=41	=41	=41	=41	=41	=41	=41	=41	=41	=41
4F	.	8F	se	4A	Da	4A	-ven-	4c	-go ei	2r	.
.	.	8E	le a-	.	.	.	.	.	.	.	.
4D	.	4D	-ven-	4d	ter-	4A	-ta,	8f	se	.	.
.	.	.	.	.	.	.	.	8e	le a-	.	.
4G	.	4G	-ta,	4B	-go ei	2r	.	4d	-ven-	4g	Da
4C	.	4C	<Da	8c	se	.	.	4e	-ta,	4cc	ter-
.	.	.	.	8G	le a-	.	.	.	.	.	.
=42	=42	=42	=42	=42	=42	=42	=42	=42	=42	=42	=42
4F	.	4F	ter-	2A	-ven-	2r	.	4c	<Da	4a	-go ei
4D	.	4D	-go ei	.	.	.	.	4f	ter-	8dd	se
.	.	.	.	.	.	.	.	.	.	8cc	le a-
4G	.	8G	se	2G	-ta	4r	.	4d	-go ei	4b	-ven-
.	.	8F	le a-	.	.	.	.	.	.	.	.
4E	.	4E	-ven-	.	.	4G	<Da	8g	se	4g	-ta,
.	.	.	.	.	.	.	.	8f	le a-	.	.
=43	=43	=43	=43	=43	=43	=43	=43	=43	=43	=43	=43
4C	.	4C	-ta>	1r	.	4c	ter-	4e	-ven-	4g	ei
4AA	.	4r	.	.	.	4A	-go ei	8c	-ta,>	8cc	se
.	.	.	.	.	.	.	.	8c	ei	8b	le a-
4D	.	2r	.	.	.	8d	se	8f	se	4a	-ven-
.	.	.	.	.	.	8c	le a-	8e	le a-	.	.
4BB	.	.	.	.	.	4B	-ven-	4d	-ven-	4b	-ta
=44	=44	=44	=44	=44	=44	=44	=44	=44	=44	=44	=44
4C	.	1r	.	1r	.	4c	-ta>	4e	-ta	2r	.
4GG	.	.	.	.	.	8r	.	4d	e’l	.	.
.	.	.	.	.	.	8G	e’l	.	.	.	.
[2C	.	.	.	.	.	[2c	brac-	2e	brac-	4r	.
.	.	.	.	.	.	.	.	.	.	4g	e’l
=45	=45	=45	=45	=45	=45	=45	=45	=45	=45	=45	=45
4C]	# 2	1r	.	1r	.	4c]	.	4f#X	-cio	4a	brac-
4BB	.	.	.	.	.	4B	-cio	2g	pren-	4b	-cio
2AA	#6	.	.	.	.	2A	pren-	.	.	2cc	pren-
.	.	.	.	.	.	.	.	4f#X	.	.	.
=46	=46	=46	=46	=46	=46	=46	=46	=46	=46	=46	=46
2GG	.	1r	.	4r	.	2G	-de	2g	-de	2b	-de
.	.	.	.	4G	Che	.	.	.	.	.	.
4AA	.	.	.	8.A	già	2r	.	4c	Che	2r	.
.	.	.	.	16A	la	.	.	.	.	.	.
4BB	.	.	.	8.B	fe-	.	.	8.d	già	.	.
.	.	.	.	16B	-ra	.	.	16d	la	.	.
=47	=47	=47	=47	=47	=47	=47	=47	=47	=47	=47	=47
4C	.	4C	Che	4c	pun-	2r	.	8.e	fe-	1r	.
.	.	.	.	.	.	.	.	16e	-ra	.	.
4D	.	8.D	già	8A	-ta	.	.	4f	pun-	.	.
.	.	.	.	8d	al	.	.	.	.	.	.
.	.	16D	la	.	.	.	.	.	.	.	.
4E	6	8.E	fe-	2c	pet-	4G	Che	8e	-ta	.	.
.	.	.	.	.	.	.	.	8g	al	.	.
.	.	16E	-ra	.	.	.	.	.	.	.	.
4F	.	4F	pun-	.	.	8.A	già	4f	pet-	.	.
.	.	.	.	.	.	16A	la	.	.	.	.
=48	=48	=48	=48	=48	=48	=48	=48	=48	=48	=48	=48
2G	.	2G	-ta,	2B	-to	8.B	fe-	2d	-to,	4r	.
.	.	.	.	.	.	16c	-ra	.	.	.	.
.	.	.	.	.	.	2d	pun-	.	.	4g	Che
4D	.	4r	.	4A	sten-	.	.	4r	.	8.a	già
.	.	.	.	.	.	.	.	.	.	16a	la
4GG	.	4GG	<Che	4G	-de,	4d	-ta	[4g	al	8.b	fe-
.	.	.	.	.	.	.	.	.	.	16b	-ra
=49	=49	=49	=49	=49	=49	=49	=49	=49	=49	=49	=49
4AA	.	8.AA	già	4C	<Che	2r	.	4g]	.	4cc	pun-
.	.	16AA	la	.	.	.	.	.	.	.	.
4BB	.	8.BB	fe-	8.D	già	.	.	4f	pet-	8b	-ta
.	.	.	.	.	.	.	.	.	.	8dd	al
.	.	16BB	-ra	16D	la	.	.	.	.	.	.
4C	.	8.C	pun-	8.E	fe-	4r	.	4e	-to	4cc	pet-
.	.	16C	-ta> al	16E	-ra	.	.	.	.	.	.
4D	#	8.D	pet-	8.F#X	pun-	4d	al	8dL	sten-	[4b	-to
.	.	.	.	.	.	.	.	8AJ	.	.	.
.	.	16D	-to	16F#i	-ta al	.	.	.	.	.	.
=50	=50	=50	=50	=50	=50	=50	=50	=50	=50	=50	=50
1E	#	1E	sten-	4G#X	pet-	4B	pet-	1e	.	4b]	.
.	.	.	.	4A	-to	4c	-to	.	.	2a	sten-
.	.	.	.	2B	sten-	2B	sten-	.	.	.	.
.	.	.	.	.	.	.	.	.	.	4g#X	.
=51	=51	=51	=51	=51	=51	=51	=51	=51	=51	=51	=51
2AA	#	2AA	-de,	1A	-de>,	1c#X	-de,	1e	-de,	1a	-de,
2A	.	4r	.	.	.	.	.	.	.	.	.
.	.	4A	e’l	.	.	.	.	.	.	.	.
=52	=52	=52	=52	=52	=52	=52	=52	=52	=52	=52	=52
2.F	.	2.F	brac-	1r	.	2r	.	4r	.	1r	.
.	.	.	.	.	.	.	.	4c	Che	.	.
.	.	.	.	.	.	4r	.	8.d	già	.	.
.	.	.	.	.	.	.	.	16d	la	.	.
4E	.	4E	-cio	.	.	4G	Che	8.e	fe-	.	.
.	.	.	.	.	.	.	.	16e	-ra	.	.
=53	=53	=53	=53	=53	=53	=53	=53	=53	=53	=53	=53
2D	.	2D	pren-	1r	.	8.A	già	2f	pun-	2r	.
.	.	.	.	.	.	16A	la	.	.	.	.
.	.	.	.	.	.	8.B	fe-	.	.	.	.
.	.	.	.	.	.	16B	-ra	.	.	.	.
2C	.	2C	-de	.	.	4c	pun-	4e	-ta	4r	.
.	.	.	.	.	.	4G	-ta	8r	.	4g	Che
.	.	.	.	.	.	.	.	8g	al	.	.
=54	=54	=54	=54	=54	=54	=54	=54	=54	=54	=54	=54
4F	.	2r	.	4r	.	4r	.	4f	pet-	8.a	già
.	.	.	.	.	.	.	.	.	.	16a	la
4G	.	.	.	4G	Che	4d	al	4d	-to,	8.b	fe-
.	.	.	.	.	.	.	.	.	.	16b	-ra
4A	.	4r	.	8.A	già	4c	pet-	4r	.	4cc	pun-
.	.	.	.	16A	la	.	.	.	.	.	.
4G	.	4G	Che	8.B	fe-	4B	-to	4g	al	4dd	-ta
.	.	.	.	16B	-ra	.	.	.	.	.	.
=55	=55	=55	=55	=55	=55	=55	=55	=55	=55	=55	=55
4A	.	8.A	già	4c	pun-	4A	sten-	4f	pet-	4r	.
.	.	16A	la	.	.	.	.	.	.	.	.
4G	.	8.B	fe-	4G	-ta	4d	-de,	4d	-to	4dd	al
.	.	16B	-ra	.	.	.	.	.	.	.	.
4c	.	4c	pun-	2r	.	2r	.	4e	sten-	4cc	pet-
4G	.	4G	-ta,	.	.	.	.	4d	-de,	4b	-to,
=56	=56	=56	=56	=56	=56	=56	=56	=56	=56	=56	=56
4GG	.	2r	.	2r	.	4G	Che	4r	.	4g	<al
4AA	6	.	.	.	.	8.A	già	4c	Che	2f	pet-
.	.	.	.	.	.	16A	la	.	.	.	.
4BB	.	4r	.	4d	al	8.B	fe-	8.d	già	.	.
.	.	.	.	.	.	16B	-ra	16d	la	.	.
4C	.	4C	<Che	[4c	pet-	4c	pun-	8.e	fe-	4e	-to>
.	.	.	.	.	.	.	.	16e	-ra	.	.
=57	=57	=57	=57	=57	=57	=57	=57	=57	=57	=57	=57
4D	.	8.D	già	4c]	.	4A	-ta	4f	pun-	4f	sten-
.	.	16D	la	.	.	.	.	.	.	.	.
4E	.	8.E	fe-	4B	-to	4e	al	8e	-ta	4g	-de,
.	.	.	.	.	.	.	.	8g	al	.	.
.	.	16E	-ra	.	.	.	.	.	.	.	.
4F	.	8.F	pun-	4A	sten-	4c	pet-	4f	pet-	4r	.
.	.	16F	-ta> al	.	.	.	.	.	.	.	.
4G	6	8.G	pet-	4G	-de,	8B	-to,	[4e	-to	4g	al
.	.	.	.	.	.	8B	al	.	.	.	.
.	.	16G	-to	.	.	.	.	.	.	.	.
=58	=58	=58	=58	=58	=58	=58	=58	=58	=58	=58	=58
2A	#	2A	sten-	4r	.	4c#X	pet-	4e]	.	4f	pet-
.	.	.	.	4A	al	4d	-to	2d	sten-	4f	-to
2AA	.	2AA	.	8.A	pet-	4e	sten-	.	.	2e	sten-
.	.	.	.	16E	-to	.	.	.	.	.	.
.	.	.	.	4E	sten-	4A	.	4c#X	.	.	.
=59	=59	=59	=59	=59	=59	=59	=59	=59	=59	=59	=59
1Dl	.	1Dl	-de.	1Dl	-de.	1Al	-de.	1dl	-de.	1f#Xl	-de.
==	==	==	==	==	==	==	==	==	==	==	==
*-	*-	*-	*-	*-	*-	*-	*-	*-	*-	*-	*-
!!!system-decoration: [(s1)(s2)(s3)(s4)(s5)]s6
!!!RDF**kern: i = editorial accidental
!!!RDF**kern: l = terminal long
!!!ENC: Emiliano Ricciardi
!!!END: 2019/08/08
!!!EED: Mazzetti, Marcello; Ticli, Livio
!!!EEV: 2019/08/08
!!!YEC: Copyright 2018 Emiliano Ricciardi, All Rights Reserved
!!!ONB: Translated from MusicXML on 2019/08/08 and edited by Craig Stuart Sapp
!!@@BEGIN:	VERSEDATA
!!@CATALOGNUM:	Tsg20127
!!@LAST_MODIFIED: 2020/07/12
!!@TITLE:		Qui tacque: e stabilito il suo pensiero
!!@CANTO:		XX
!!@OTTAVA:	127
!!@MANUSRC:	G-Al, G-Au, G-Br<sub>2</sub>, G-Es<sub>1</sub>, G-Es<sub>2</sub>, G-Es<sub>3</sub>, G-F, G-Fr, G-Fr<sub>1</sub>, G-Fr<sub>2</sub>, G-Mc<sub>1</sub>, G-Mr, G-Mt, G-N, G-Ol
!!@PRINTSRC:	G-1580CM, G-1581B, G-1581CV, G-1581R, G-1581MR, G-1581P, G-1581V, G-1581V<sub>bis</sub>, G-1582C, G-1582M, G-1582MC, G-1582P, G-1582SC, G-1582SC<sub>bis</sub>, G-1583S, G-1584O, G-1584S, G-1585C, G-1585S, G-1588S, G-1589S, G-1590B, G-1590S, G-1592S, G-1593S, G-1594C, G-1595C, G-1597C, G-1598C, G-1599C, G-1600C, G-1600S, G-1601C, G-1601R, G-1602C, G-1604C, G-1604Cl, G-1604F, G-1604P, G-1606B, G-1606B<sub>bis</sub>, G-1606L, G-1607ZR, G-1608DP, G-1609GC, G-1610M, G-1611S, G-1611V, G-1612P, G-1613M, G-1613P, G-1613V, G-1615P, G-1616M, G-1617P, G-1619B, G-1619V, G-1620M, G-1620S, G-1621R, G-1624I, G-1624MT, G-1625C, G-1625S, G-1625SS, G-1626C, G-1626Co, G-1627M, G-1628T, G-1628Tu, G-1630L, G-1630T, G-1632FT, G-1639CF, G-1642M, G-1643I, G-1644P, G-1644S
!!@@BEGIN:	VERSES
!!@ABOUTIT:
!!@ABOUTEN:
!!@EDITOR:	Angelo Solerti
!!@EDITION_TITLE: Gerusalemme liberata. Poema eroico di Torquato Tasso. Edizione critica sui manoscritti e le prime stampe.
!!@EDITION_LOC:	Florence
!!@EDITION_PUB:	G. Barbera
!!@EDITION_DATE:  1895
!!@EDITION_VOL:
!!@EDITION_PAGE:
!!@TRANSLATOR:	Emiliano Ricciardi and Amyrose McCue Gill
!!@VERSE:
!!	Quì tacque: e stabilito il suo pensiero,
!!	Strale sceglieva il più pungente e forte;
!!	Quando giunse, e mirolla il Cavaliero
!!	Tanto vicina alla sua estrema sorte,
!!	Già compostasi in atto atroce e fero,
!!	Già tinta in viso di pallor di morte.
!!	Da tergo ei se le avventa, e ’l braccio prende
!!	Che già la fera punta al petto stende.
!!@TVERSE:
!!	Here she fell silent; and, her mind made up,
!!	An arrow she chose, the most pointed and strong;
!!	When the Knight arrived, and saw her
!!	So close to her final fate,
!!	Already posed for the terrible and hurtful act,
!!	Already tinged upon her face with the pallor of death.
!!	From behind he attacks her, and seizes her arm
!!	That already extends the hurtful point to her chest.
!!@@END:		VERSES
!!@OTHER_CRIT_ED:  Torquato Tasso, <i>Gerusalemme liberata</i>, ed. Lanfranco Caretti, 2 vols. (Bari: Laterza, 1967).
!!@ATTRIBUTION_ABOUT:
!!@DATING:	mid-1560s through 1570s
!!@DEDICATEE:	Duke Alfonso II d'Este
!!@COMMENTARY:
!!@@END:		VERSEDATA
!!@@BEGIN: SETTING
!!@CATALOGNUM:	Tsg20127a
!!@CANTO:		XX
!!@OTTAVA:	127
!!@TITLE:	Qui tacque: e stabilito il suo pensiero
!!@SETTINGTITLE: Qui taque: e stabilito il suo pensiero
!!@COMPOSER:	Eredi, Francesco
!!@PARTS:		5 of 10
!!@PRINCEPSTITLE:	L'Armida del Tasso posta in musica a cinque voci, col suo basso per suonare
!!@PRINCEPSLOC:	Venice
!!@NORMLOC:	Venice
!!@NORMPUB:	Alessandro Vincenti
!!@NORMPUBSHORT:	A. Vincenti
!!@PRINCEPSPUB:	Alessandro Vincenti
!!@PRINCEPSYEAR:	1629
!!@PRINCEPSRISM:	E 741
!!@OVOICES:	5+bc
!!@EXTANTVOICES:	5+bc
!!@OMENSURATION:	C
!!@OCLEFS:	C1,C3,C4,C4,F4,F4
!!@OTIME:		
!!@OKEYSIG:	-
!!@FINAL:		(D)G
!!@TIMPEDITOR:	Mazzetti, Marcello; Ticli, Livio
!!@REPRINTS:	
!!@@END: SETTING
